icons/night/graphql.svg

<svg width="16" height="16" viewBox="0 0 16 16" fill="none" xmlns="http://www.w3.org/2000/svg">
<path d="M8.20001 14.5C8.01616 14.4982 7.83501 14.4555 7.66969 14.375C7.50437 14.2945 7.35902 14.1783 7.24416 14.0347C7.1293 13.8911 7.04781 13.7238 7.00558 13.5448C6.96335 13.3659 6.96145 13.1798 7.00001 13L4.49001 11.54C4.42531 11.6043 4.35111 11.6583 4.27001 11.7C4.08207 11.8106 3.8681 11.8693 3.65001 11.87C3.37569 11.8753 3.10737 11.7894 2.88707 11.6258C2.66678 11.4622 2.50696 11.2302 2.43264 10.9661C2.35832 10.702 2.3737 10.4207 2.47637 10.1662C2.57904 9.91178 2.7632 9.69858 3.00001 9.56C3.07734 9.51097 3.16162 9.47388 3.25001 9.45V6.55C3.16162 6.52612 3.07734 6.48904 3.00001 6.44C2.71521 6.27661 2.50684 6.00693 2.42061 5.69011C2.33437 5.37329 2.37732 5.0352 2.54001 4.75C2.6509 4.56195 2.80874 4.40594 2.99807 4.29725C3.18739 4.18856 3.40171 4.13093 3.62001 4.13C3.8381 4.1307 4.05207 4.18937 4.24001 4.3C4.32111 4.34175 4.39531 4.39571 4.46001 4.46L7.00001 3C6.99016 2.90693 6.99016 2.81308 7.00001 2.72C6.98456 2.54848 7.00501 2.37562 7.06006 2.21244C7.1151 2.04925 7.20353 1.89932 7.31972 1.7722C7.4359 1.64508 7.57729 1.54355 7.73488 1.47409C7.89247 1.40463 8.0628 1.36876 8.23501 1.36876C8.40723 1.36876 8.57756 1.40463 8.73515 1.47409C8.89274 1.54355 9.03413 1.64508 9.15031 1.7722C9.2665 1.89932 9.35493 2.04925 9.40997 2.21244C9.46502 2.37562 9.48547 2.54848 9.47002 2.72C9.47931 2.8131 9.47931 2.9069 9.47002 3L11.98 4.44C12.0447 4.37571 12.1189 4.32175 12.2 4.28C12.388 4.16937 12.6019 4.1107 12.82 4.11C13.0381 4.11191 13.2521 4.16995 13.4412 4.27854C13.6304 4.38713 13.7884 4.54261 13.9 4.73C14.0601 5.01579 14.1015 5.35299 14.0155 5.66904C13.9295 5.98509 13.7228 6.25475 13.44 6.42C13.3627 6.46904 13.2784 6.50612 13.19 6.53V9.43C13.2784 9.45388 13.3627 9.49097 13.44 9.54C13.5819 9.61998 13.7062 9.72755 13.8059 9.85636C13.9055 9.98516 13.9783 10.1326 14.02 10.29C14.0671 10.4737 14.0717 10.6657 14.0335 10.8515C13.9954 11.0372 13.9155 11.2119 13.7999 11.3622C13.6842 11.5125 13.5359 11.6345 13.3662 11.719C13.1964 11.8036 13.0096 11.8483 12.82 11.85C12.6019 11.8493 12.388 11.7906 12.2 11.68C12.1064 11.6315 12.0218 11.5672 11.95 11.49L9.40001 13C9.41465 13.1028 9.41465 13.2072 9.40001 13.31C9.38753 13.6233 9.25679 13.9203 9.03413 14.1411C8.81148 14.3619 8.51343 14.4901 8.20001 14.5ZM8.20001 12C8.52425 12.0004 8.83585 12.1257 9.07001 12.35L11.42 11H5.00001L7.37001 12.35C7.59247 12.1326 7.88904 12.0075 8.20001 12ZM11.57 10.24C11.6006 10.1541 11.6374 10.0706 11.68 9.99C11.7278 9.91023 11.7849 9.83638 11.85 9.77L8.48001 4C8.38694 4.00985 8.29309 4.00985 8.20001 4C8.11366 4.01038 8.02637 4.01038 7.94001 4L4.56001 9.79C4.62515 9.85638 4.68222 9.93023 4.73001 10.01C4.77266 10.0906 4.80943 10.1741 4.84001 10.26L11.57 10.24ZM4.00001 9.3L7.19001 3.76L4.86001 5.1C4.93344 5.40674 4.88315 5.73006 4.72001 6C4.5686 6.27078 4.31742 6.47172 4.02001 6.56L4.00001 9.3ZM12.4 9.3V6.56C12.1061 6.4673 11.8572 6.26845 11.7019 6.00223C11.5466 5.73601 11.496 5.42149 11.56 5.12L9.22002 3.76L12.4 9.3Z" fill="#F7768E"/>
</svg>

<svg xmlns="http://www.w3.org/2000/svg" data-name="Calque 1" viewBox="0 0 16 16"><path
    d="M8.2 14.5A1.24 1.24 0 0 1 7 13l-2.51-1.46a.89.89 0 0 1-.22.16 1.23 1.23 0 0 1-.62.17A1.24 1.24 0 0 1 3 9.56a.91.91 0 0 1 .25-.11v-2.9A.91.91 0 0 1 3 6.44a1.24 1.24 0 0 1-.46-1.69 1.26 1.26 0 0 1 1.08-.62 1.23 1.23 0 0 1 .62.17.89.89 0 0 1 .22.16L7 3a1.33 1.33 0 0 1 0-.28 1.24 1.24 0 1 1 2.47 0 1.41 1.41 0 0 1 0 .28l2.51 1.44a.89.89 0 0 1 .22-.16 1.23 1.23 0 0 1 .62-.17 1.27 1.27 0 0 1 1.08.62 1.25 1.25 0 0 1-.46 1.69.91.91 0 0 1-.25.11v2.9a.91.91 0 0 1 .25.11 1.22 1.22 0 0 1 .58.75 1.25 1.25 0 0 1-1.2 1.56 1.23 1.23 0 0 1-.62-.17.92.92 0 0 1-.25-.19L9.4 13a1.1 1.1 0 0 1 0 .31 1.24 1.24 0 0 1-1.2 1.19Zm0-2.5a1.26 1.26 0 0 1 .87.35L11.42 11H5l2.37 1.35A1.23 1.23 0 0 1 8.2 12Zm3.37-1.76a1.89 1.89 0 0 1 .11-.25 1.18 1.18 0 0 1 .17-.22L8.48 4a1.33 1.33 0 0 1-.28 0 1.09 1.09 0 0 1-.26 0L4.56 9.79a1.18 1.18 0 0 1 .17.22 1.89 1.89 0 0 1 .11.25ZM4 9.3l3.19-5.54L4.86 5.1a1.2 1.2 0 0 1-.14.9 1.19 1.19 0 0 1-.7.56Zm8.4 0V6.56a1.24 1.24 0 0 1-.84-1.44L9.22 3.76Z"
    style="fill:#f7768e"
  /></svg>
